FINK
CUT[LASST DIE POLITIKER NUR SPRECHEN]
REG[Europa, Mitteleuropa, Deutschland]
KEY[F0732  08  C 3/4]
MEL[  1_1_1_  1_-7_1_  -6_1_-6_  -6_-5_0_
    1_1_1_  1_-7_1_  -5_4_3_  3_2_0_
    1_1_1_  1_-7_1_  -6_1_-6_  -6_-5_0_
    1_1_1_  1_-7_1_  -5_4_3_  3_2_0_
    2_2_2_  2_.1-7_  1_-6_-4#_  -5__0_
    3_3_3_  5_.43_  2_1_-7_  1__0_
    2_2_2_  2_.1-7_  1_-6_-4#_  -5__0_
    3_3_3_  5_.43_  2_1_-7_  1__0_ //] >>
FCT[Geselligkeits -, Trink - Lied]
